!!!COM: Stadler, Maximilian
!!!CDT: 1748///-1833///
!!!COA: Haydn, Joseph
!!!OTL@@IT: Gioco filarmonico
!!!OTL@EN: Philharmonic Joke
!!!OTA@@IT: o sia maniera facile per comporre un infinito numero de minuetti e trio anche senza sapere il contrapunto
!!!OTA@EN: or the Art of Composing an Infinite Number of Minutes Without the Least Knowledge of Counterpoint
!!!PDT: 1781///
!!!PPR: Artaria
!!!SML: Gesellschaft der Musikfreundes, Vienna
!!!PPR2: Luigi Marescalchi
!!!PPP2: Napoli
!!!PDT2: 1790///
**kern	**kern	**kern
*Icello	*Ivioln	*Ivioln
*>[A,A,B,B,A]	*>[A,A,B,B,A]	*>[A,A,B,B,A]
*>norep[A,B]	*>norep[A,B]	*>norep[A,B]
*>A	*>A	*>A
*k[]	*k[]	*k[]
*M3/4	*M3/4	*M3/4
*MM120	*MM120	*MM120
!!section:  I
!!measure:  A
!!diceroll: 7
=104	=104	=104
4C	4e	[4cc
4E	4g	16cc]
.	.	16bb
.	.	16aa
.	.	16gg
4r	4r	16ff
.	.	16ee
.	.	16dd
.	.	16cc
!!section:  I
!!measure:  B
!!diceroll: 6
=74	=74	=74
2F	2e	8cc
.	.	8b
.	.	8gg
.	.	8b
4E	4e	4cc
!!section:  I
!!measure:  C
!!diceroll: 4
=158	=158	=158
4F	4c	4a
4FF	4r	12aa
.	.	12gg
.	.	12ff
4r	4r	12ee
.	.	12dd
.	.	12cc
!!section:  I
!!measure:  D
!!diceroll: 8
=53	=53	=53
2G	4r	8cc
.	.	8b
.	4f	8dd
.	.	8b
4c	4e	4cc
!!section:  I
!!measure:  E
!!diceroll: 6
=80	=80	=80
2F#	[4a	[4cc
.	12a]	12cc]
.	12cc	12ee
.	12b	12dd
4D	12a	12cc
.	12g	12b
.	12f#	12a
!!section:  I
!!measure:  F
!!diceroll: 5
=2	=2	=2
2.BB	4r	8r
.	.	8d
.	4d	8f#
.	.	8g
.	4g	8b
.	.	8dd
!!section:  I
!!measure:  G
!!diceroll: 6
=36	=36	=36
4D	8.cc	8.ee
.	16a	16cc
4E	4g	4b
4DD	4f#	4a
!!section:  I
!!measure:  H
!!diceroll: 9
=94	=94	=94
4G	2.g	2.g
8D	.	.
8BB	.	.
4GG	.	.
*>B	*>B	*>B
!!section:  II
!!measure:  A
!!diceroll: 10
=65	=65	=65
4r	4r	16a
.	.	16b
.	.	16cc#
.	.	16b
4A	4c#	8a
.	.	4aa
4A	4e	.
.	.	8cc#
!!section:  II
!!measure:  B
!!diceroll: 9
=88	=88	=88
4F	2.A	8aa
.	.	8dd
4G	.	16cc#
.	.	16dd
.	.	16ee
.	.	16cc#
4F	.	4dd
!!section:  II
!!measure:  C
!!diceroll: 6
=64	=64	=64
4BB	12B	2g
.	12d	.
.	12g	.
4BB	12B	.
.	12d	.
.	12g	.
4BB	12B	16gg
.	.	16ff
.	12d	.
.	.	16ee
.	12g	.
.	.	16dd
!!section:  II
!!measure:  D
!!diceroll: 5
=34	=34	=34
4E	2.g	8gg
.	.	8cc
4F	.	16b
.	.	16cc
.	.	16dd
.	.	16b
4E	.	4cc
!!section:  II
!!measure:  E
!!diceroll: 6
=76	=76	=76
8F	8r	8r
8r	8a	8aa
8D	8r	8r
8r	8f	8ff
8BB	8r	8r
8r	8d	8dd
!!section:  II
!!measure:  F
!!diceroll: 9
=115	=115	=115
4E	8.c	8.g
.	16e	16cc
4C	8.g	8.ee
.	16e	16cc
8r	4ee	4gg
8E	.	.
!!section:  II
!!measure:  G
!!diceroll: 5
=52	=52	=52
4F	8.c	16aa
.	.	16gg
.	.	16aa
.	16d	16ff
4G	4c	4ee
4G	4B	4dd
!!section:  II
!!measure:  H
!!diceroll: 4
=79	=79	=79
8r	2.cc	2.cc
8C	.	.
8E	.	.
8G	.	.
4c	.	.
*-	*-	*-
!!!END: 2004/11/01/
